icons/codespaces2-16.svg

<svg width="16" height="16" viewBox="0 0 16 16" fill="none" xmlns="http://www.w3.org/2000/svg">
<g clip-path="url(#clip0)">
<path fill-rule="evenodd" clip-rule="evenodd" d="M1.19209e-07 1.75C1.78814e-07 0.783502 0.783502 -5.96046e-08 1.75 0L14.25 5.36442e-07C15.2165 5.96046e-07 16 0.783502 16 1.75V4.25C16 4.66421 15.6642 5 15.25 5C14.8358 5 14.5 4.66421 14.5 4.25V1.75C14.5 1.61193 14.3881 1.5 14.25 1.5L1.75 1.5C1.61193 1.5 1.5 1.61193 1.5 1.75L1.5 4.25C1.5 4.66421 1.16421 5 0.75 5C0.335786 5 0 4.66421 0 4.25L1.19209e-07 1.75ZM5.28033 4.96967C5.57322 5.26256 5.57322 5.73744 5.28033 6.03033L3.31066 8L5.28033 9.96967C5.57322 10.2626 5.57322 10.7374 5.28033 11.0303C4.98744 11.3232 4.51256 11.3232 4.21967 11.0303L1.71967 8.53033C1.42678 8.23744 1.42678 7.76256 1.71967 7.46967L4.21967 4.96967C4.51256 4.67678 4.98744 4.67678 5.28033 4.96967ZM10.7197 4.96967C11.0126 4.67678 11.4874 4.67678 11.7803 4.96967L14.2803 7.46967C14.5732 7.76256 14.5732 8.23744 14.2803 8.53033L11.7803 11.0303C11.4874 11.3232 11.0126 11.3232 10.7197 11.0303C10.4268 10.7374 10.4268 10.2626 10.7197 9.96967L12.6893 8L10.7197 6.03033C10.4268 5.73744 10.4268 5.26256 10.7197 4.96967ZM0.75 11C1.16421 11 1.5 11.3358 1.5 11.75L1.5 14.25C1.5 14.3881 1.61193 14.5 1.75 14.5L14.25 14.5C14.3881 14.5 14.5 14.3881 14.5 14.25L14.5 11.75C14.5 11.3358 14.8358 11 15.25 11C15.6642 11 16 11.3358 16 11.75V14.25C16 15.2165 15.2165 16 14.25 16H1.75C0.783502 16 1.78814e-07 15.2165 2.98023e-07 14.25L5.96046e-07 11.75C6.55651e-07 11.3358 0.335787 11 0.75 11Z" fill="black"/>
</g>
<defs>
<clipPath id="clip0">
<rect width="16" height="16" fill="white"/>
</clipPath>
</defs>
</svg>

<svg xmlns="http://www.w3.org/2000/svg" width="16" height="16" viewBox="0 0 16 16"><path fill-rule="evenodd" d="M0 1.75C0 .784.784 0 1.75 0h12.5C15.216 0 16 .784 16 1.75v2.5a.75.75 0 01-1.5 0v-2.5a.25.25 0 00-.25-.25H1.75a.25.25 0 00-.25.25v2.5a.75.75 0 01-1.5 0v-2.5zm5.28 3.22a.75.75 0 010 1.06L3.31 8l1.97 1.97a.75.75 0 11-1.06 1.06l-2.5-2.5a.75.75 0 010-1.06l2.5-2.5a.75.75 0 011.06 0zm5.44 0a.75.75 0 011.06 0l2.5 2.5a.75.75 0 010 1.06l-2.5 2.5a.75.75 0 11-1.06-1.06L12.69 8l-1.97-1.97a.75.75 0 010-1.06zM.75 11a.75.75 0 01.75.75v2.5c0 .138.112.25.25.25h12.5a.25.25 0 00.25-.25v-2.5a.75.75 0 011.5 0v2.5A1.75 1.75 0 0114.25 16H1.75A1.75 1.75 0 010 14.25v-2.5A.75.75 0 01.75 11z"/></svg>
